X:8053
T:When the Wind Shakes the Barley
O:england
M:4/4
L:1/8
Q:1/4=140
C:trad.
S:transcription of Joey McKensie jamming at Weiser 1997 by LL.B.
K:D
|A2 AB AFED|G, [D2B2]  A BcdB|AFAB AFED|gfed BcdB|
AGAB AFED|G, [D2B2]  A BcdB|AGBG ABde|fded BcdB||
AFAB AFED|BGDG BcdB|AFBF ABde|fded BcdB|
AFAB AFED|G, [D2B2]  A BcdB|AFAB AFED|gfed Bcde||
f2 fd g2 gd|f2 fd edBd| f2 ef g2 fg|afed Bcde|
fefa gega|fefa edBd|fdef gefg|afed Bcde||
[A2f2] fd [B2g2] gd|[A2f2] fd edBd|fdef gefg|afed BcdB|
|A2 AB AFED|G, [D2B2]  A BcdB|AFAB AFED|"And On and On"gfed BcdB


